X: 1
T: Behold, A Host, Arrayed in White
C: Words: Hans Adolf Brorson, circa 1760.  Translation composite.  
C: Music: 'Den Store Hvide Flok' or 'Great White Host' traditional Norwegian, 17th cent.  Setting: Edvard Grieg, 1907.
C: copyright: public domain.  This score is a part of the Open Hymnal Project, 2007 Revision.
S: Translation is public domain per Project Wittenberg: http://www.ccel.org/a/anonymous/luth_hymnal/tlh656.htm - also in Lutheran Hymnary
M: 6/4 % time signature
L: 1/4 % default length
%%staves (S1V1 S1V2) | (S2V1 S2V2) 
V: S1V1 clef=treble 
%%MIDI beat 127 125 110 1
V: S1V2 
%%MIDI beat 127 125 110 1
V: S2V1 clef=bass 
%%MIDI beat 127 125 110 1
V: S2V2 
%%MIDI beat 127 125 110 1
K: Eb % key signature
%
%%MIDI program 1 0 % Piano 1
%%MIDI program 2 0 % Piano 1
%%MIDI program 3 0 % Piano 1
%%MIDI program 4 0 % Piano 1
%
% 1
[V: S1V1]  [Q:1/4=120] E/G/ | B2 B c2 B | (G3/2 E/) G/B/ F2 F/G/ | A2 F (E3/2 F/) G/A/ |
w: 1.~Be- * hold a host, a- rrayed * in * white, Like * thou- sand snow * clad * 
w: 2.~Des- * pised and scorned, they so- * journed * here; But * now, how glo- * rious * 
w: 3.~Then * hail, ye might- y le- * gions, * yea, All * hail! Now safe * and * 
[V: S1V2]  B, | B,2 G ^F2 G | E2 E E2 E | (E F) F E2 E |
[V: S2V1]  G, | G,2 B, =A,2 B, | B,2 B, =A,2 A, | (_A, D) C C2 B, |
[V: S2V2]  E, | E,2 E, E,2 E, | _D,2 _D, C,2 C, | B,,2 A, G,2 C, |
% 5
[V: S1V1]  B2 D E2 G/A/ | (B3/2 G/) c/B/ B2 c | (B3/2 F/) A G2 E/F/ | (G3/2 A/) G (F3/2 G/) F |
w: moun- tains bright, With * palms * they * stand. Who is * this band Be- * fore * the throne * of 
w: they ap- pear! Those * mar- * tyrs * stand a priest- * ly band, God's * throne * for- ev- * er 
w: blest for aye, And * praise * the * Lord, who with * His Word Sus- * tained * you on * the 
[V: S1V2]  (E C) D B,2 E | (F3/2 G/) A F2 A | F2 F D2 E | (E B,) C (D C) D |
[V: S2V1]  A,2 A, G,2 C | D2 E D2 E | (E D) C =B,2 G,/A,/ | B,2 =A, _A,2 A, |
[V: S2V2]  F,2 B,, E,2 C, | B,,2 A,, B,,2 A,, | (B,, B,) F, G,2 C, | B,,2 B,, B,,2 B,, |
% 9
[V: S1V1]  E3- E2 E/G/ | B2 B c2 B | (G3/2 E/) G/B/ F2 F/G/ | A2 F (E3/2 F/) G/A/ | B2 D E2
w: light?  * Lo, * these are they of glo- * rious * fame Who * from the great * a- * fflic- tion came 
w: near.  * So * oft, in troub- led days * gone * by, In * an- guish they * would * weep and sigh. 
w: way.  * Ye * did the joys of earth * dis- * dain, Ye * toiled and sowed * in * tears and pain. 
[V: S1V2]  B,3- B,2 B, | B,2 G ^F2 G | E2 E E2 E | (E F) F E2 E | (E C) D B,2
[V: S2V1]  (A,2 F, G,2) G, | G,2 B, =A,2 B, | B,2 B, =A,2 A, | (_A, D) C C2 B, | A,2 A, G,2
[V: S2V2]  E,3- E,2 E, | E,2 E, E,2 E, | _D,2 _D, C,2 C, | B,,2 A, G,2 C, | F,2 B,, E,2
% 13
[V: S1V1]  G/A/ | (B3/2 G/) c/B/ B2 c | (B3/2 F/) A G2 E/F/ | (G3/2 A/) G (F3/2 G/) F | E3- E2
w: And * in * the * flood of Je- * sus' blood Are * cleansed * from guilt * and blame.  * 
w: At * home * a- * bove the God * of Love For * aye * their tears * shall dry.  * 
w: Fare- * well, * now * bring your sheaves * and sing Sal- * va- * tion's glad * re- frain.  * 
[V: S1V2]  E | (F3/2 G/) A F2 A | F2 F D2 E | (E B,) C (D C) D | B,3- B,2
[V: S2V1]  C | D2 E D2 E | (E D) C =B,2 G,/A,/ | B,2 =A, _A,2 A, | (A,2 F, G,2)
[V: S2V2]  C, | B,,2 A,, B,,2 A,, | (B,, B,) F, G,2 C, | B,,2 B,, B,,2 B,, | E,3- E,2 
% 17
%%newpage
[V: S1V1]  E/G/ | c2 c c2 B | (G3/2 E/) G/B/ F2 F/G/ | A2 F (E3/2 F/) G/A/ | B2 D E2
w: Now * ga- thered in the ho- * ly * place Their * voi- ces they * in * wor- ship raise, 
w: They * now en- joy their Sab- * bath * rest, The * pas- chal ban- * quet * of the blest; 
w: Swing * high your palms, lift up * your * song, Yea, * make it my- * riad * voi- ces strong. 
[V: S1V2]  E | G2 G G2 G | E2 E E2 E | (E F) =D E2 E | (E C) D B,2
[V: S2V1]  G,/B,/ | =A,2 A, A,2 B, | B,2 B, B,2 =A,/F,/ | (F, E/D/) C/B,/ C2 B, | B,2 _A, G,2
[V: S2V2]  E, | E,2 E, E,2 E, | _D,2 _D, C,2 C, | B,,2 A,, G,,2 C, | F,,2 B,, E,2
% 21
[V: S1V1]  G/A/ | (B3/2 G/) c B2 c | (B3/2 F/) A G2 !sintro!E/F/ | (G3/2 A/) G (F3/2 G/) F | E3- E2 !eintro!|]
w: Their * an- * thems swell where God * doth dwell, Mid * an- * gels song * of praise.  * 
w: The * Lamb, * their Lord, at fest- * al board Him- * self * is Host * and Guest.  * 
w: E- * ter- * nal- ly shall praise * to Thee, God, * and * the Lamb * be- long.  * 
[V: S1V2]  E | (F3/2 G/) A F2 A | F2 F D2 E | (E B,) C (E C) D | B,3- B,2 |]
[V: S2V1]  C | D2 E D2 E | (E D) C =B,2 G,/A,/ | B,2 =A, _A,2 A, | (A,2 F, G,2) |]
[V: S2V2]  C, | B,,2 A,, B,,2 A,, | (B,, B,) F, G,2 C, | B,,2 B,, B,,2 B,, | E,3- E,2 |]
% 27
